X: 0
T: The Holly Bush
C: Finbarr Dwyer
R: reel
M: 4/4
L: 1/8
K: Dmix
|:"D"A2FA DAFA|ABde fded|"C"cGG2 EGG2|cedc AGFG|
"D"A2FA DAFG|ABde fded|"C"cGG2 cedc|AcGE "D"D2FG:|
|:"D"Add^c defg|adde dcAc|"C"c3B cdeg|aged cAGc|
"D"Add^c defg|adde dcAB|"C"c3B cedc|AcGE "D"D2FG:| 